X:17
T:Farewell to Ireland
R:reel
Z:Transcribed by Dave Marshall
M:C|
K:D
|: D2ED FAA2 | fedf edBc | dBAF G2GB | AGFD EGFE |
D2ED FAA2 | fedf edBc | dBAF G2GB | AGFD EDD2 :|
|: defg a~f3 | g2fg edBc | defg a~f3 | g2fg e4 |
defg a~f3 | g2fg edBc | dBAF G2GB | AGFD EDD2 :|
